src/img/logo.svg

<svg width="818" height="150" viewBox="0 0 818 150" fill="none" xmlns="http://www.w3.org/2000/svg">
<path d="M0.258667 145.836V4.19911H29.9434V120.15H81.3533V145.855H0.258667V145.836Z" fill="white"/>
<path d="M106.251 145.836V4.19911H135.935V145.855H106.251V145.836Z" fill="white"/>
<path d="M164.025 75.1232C164.025 28.9043 188.518 0.00787354 227.777 0.00787354C258.866 0.00787354 280.975 20.1373 285.743 52.9943L258.25 58.166C254.867 37.8443 243.716 25.6936 227.777 25.6936C206.86 25.6936 193.709 44.4196 193.709 75.104C193.709 105.788 208.455 124.111 231.969 124.111C250.887 124.111 265.037 109.768 268.421 86.255L296.318 90.8307C291.742 127.091 266.633 150.008 231.776 150.008C189.941 150.008 164.044 121.111 164.044 75.104L164.025 75.1232Z" fill="white"/>
<path d="M311.621 50.9179C311.621 37.3252 321.484 27.5777 334.846 27.5777C348.208 27.5777 358.071 37.3252 358.071 50.9179C358.071 64.5106 348.323 74.0274 334.846 74.0274C321.369 74.0274 311.506 64.2799 311.621 50.9179ZM347.862 50.9179C347.862 43.3621 342.402 37.7867 334.961 37.7867C327.521 37.7867 321.83 43.3621 321.83 50.9179C321.83 58.4737 327.406 63.7992 334.961 63.7992C342.517 63.7992 347.862 58.4544 347.862 50.9179ZM336.711 114.325L333.116 111.768L393.158 26.6357L396.984 29.1927L336.711 114.325ZM370.856 91.5613C370.971 77.9687 380.719 68.2212 394.081 68.2212C407.443 68.2212 417.306 77.9687 417.306 91.5613C417.306 105.154 407.558 114.671 394.081 114.671C380.603 114.671 370.856 104.923 370.856 91.5613ZM407.097 91.5613C407.097 84.0056 401.637 78.4301 394.196 78.4301C386.756 78.4301 381.065 84.0056 381.065 91.5613C381.065 99.1171 386.525 104.443 394.196 104.443C401.867 104.443 407.097 99.0979 407.097 91.5613Z" fill="white"/>
<path d="M508.936 128.898L502.764 104.596C500.573 96.2332 494.805 90.254 487.23 90.254H469.504V145.836H439.819V4.19911H497.785C529.258 4.19911 549.195 21.1371 549.195 47.8225C549.195 65.7603 538.044 80.4872 518.914 85.0822V85.2745C526.278 88.466 529.873 94.6375 531.872 102.808L536.448 121.534C537.448 126.11 539.428 129.109 543.023 129.109C545.811 129.109 548.81 127.11 551.598 123.322L558.962 137.857C552.579 145.028 543.023 149.22 533.257 149.22C520.106 149.22 511.935 141.049 508.955 128.898H508.936ZM469.485 69.144H495.382C509.916 69.144 519.491 60.973 519.491 48.2263C519.491 35.4796 509.936 26.9048 495.382 26.9048H469.485V69.144Z" fill="white"/>
<path d="M581.648 145.836V4.19911H618.312L668.914 110.383H669.318V4.19911H697.215V145.855H660.359L609.756 40.0745H609.353V145.855H581.667L581.648 145.836Z" fill="white"/>
<path d="M729.668 145.836V4.19911H815.742V28.5006H758.372V62.3765H807.782V83.8902H758.372V121.746H817.741V145.855H729.687L729.668 145.836Z" fill="white"/>
</svg>

<?xml version="1.0" encoding="UTF-8"?>
<svg id="Calque_1" data-name="Calque 1" xmlns="http://www.w3.org/2000/svg" version="1.1" viewBox="0 0 818 150">
  <defs>
    <style>
      .cls-1 {
        fill: #fff;
        stroke-width: 0px;
      }
    </style>
  </defs>
  <path class="cls-1" d="M.3,145.8V4.2h29.7v116h51.4v25.7H.3Z"/>
  <path class="cls-1" d="M106.3,145.8V4.2h29.7v141.7h-29.7Z"/>
  <path class="cls-1" d="M164,75.1C164,28.9,188.5,0,227.8,0s53.2,20.1,58,53l-27.5,5.2c-3.4-20.3-14.5-32.5-30.5-32.5s-34.1,18.7-34.1,49.4,14.7,49,38.3,49,33.1-14.3,36.5-37.9l27.9,4.6c-4.6,36.3-29.7,59.2-64.5,59.2s-67.7-28.9-67.7-74.9h0Z"/>
  <path class="cls-1" d="M311.6,50.9c0-13.6,9.9-23.3,23.2-23.3s23.2,9.7,23.2,23.3-9.7,23.1-23.2,23.1-23.3-9.7-23.2-23.1ZM347.9,50.9c0-7.6-5.5-13.1-12.9-13.1s-13.1,5.6-13.1,13.1,5.6,12.9,13.1,12.9,12.9-5.3,12.9-12.9ZM336.7,114.3l-3.6-2.6,60-85.1,3.8,2.6-60.3,85.1ZM370.9,91.6c.1-13.6,9.9-23.3,23.2-23.3s23.2,9.7,23.2,23.3-9.7,23.1-23.2,23.1-23.2-9.7-23.2-23.1ZM407.1,91.6c0-7.6-5.5-13.1-12.9-13.1s-13.1,5.6-13.1,13.1,5.5,12.9,13.1,12.9,12.9-5.3,12.9-12.9Z"/>
  <path class="cls-1" d="M508.9,128.9l-6.2-24.3c-2.2-8.4-8-14.3-15.5-14.3h-17.7v55.6h-29.7V4.2h58c31.5,0,51.4,16.9,51.4,43.6s-11.2,32.7-30.3,37.3v.2c7.4,3.2,11,9.4,13,17.5l4.6,18.7c1,4.6,3,7.6,6.6,7.6s5.8-2,8.6-5.8l7.4,14.5c-6.4,7.2-15.9,11.4-25.7,11.4s-21.3-8.2-24.3-20.3h0ZM469.5,69.1h25.9c14.5,0,24.1-8.2,24.1-20.9s-9.6-21.3-24.1-21.3h-25.9v42.2Z"/>
  <path class="cls-1" d="M581.6,145.8V4.2h36.7l50.6,106.2h.4V4.2h27.9v141.7h-36.9l-50.6-105.8h-.4v105.8h-27.7Z"/>
  <path class="cls-1" d="M729.7,145.8V4.2h86.1v24.3h-57.4v33.9h49.4v21.5h-49.4v37.9h59.4v24.1h-88.1Z"/>
</svg>
